dashboard/src/assets/branding/che-logo.svg

<?xml version="1.0" encoding="UTF-8" standalone="no"?>
<!--

    Copyright (c) 2015-2016 Codenvy, S.A.
    All rights reserved. This program and the accompanying materials
    are made available under the terms of the Eclipse Public License v1.0
    which accompanies this distribution, and is available at
    http://www.eclipse.org/legal/epl-v10.html

    Contributors:
      Codenvy, S.A. - initial API and implementation

-->
<svg viewBox="0 0 225 57" version="1.1" xmlns="http://www.w3.org/2000/svg" xmlns:xlink="http://www.w3.org/1999/xlink">
    <g stroke="none" stroke-width="1" fill="none" fill-rule="evenodd">
        <g>
            <path d="M0.0322265625,30.8803711 L0,13.7929688 L23.8525391,0 L47.6494141,13.7841797 L32.9580078,22.2944336 L23.8955078,17.1850586 L0.0322265625,30.8803711 Z" fill="#fdb940"></path>
            <path d="M0,43.3549805 L23.8764648,56.9770508 L47.8496094,43.0400391 L47.8496094,26.1376953 L23.8764648,39.6435547 L0,26.1376953 L0,43.3549805 Z" fill="#525c86"></path>
            <path d="M62.448,16.724 L62.448,41 L79.38,41 L79.38,39.028 L64.76,39.028 L64.76,29.44 L78.292,29.44 L78.292,27.468 L64.76,27.468 L64.76,18.696 L79.21,18.696 L79.21,16.724 L62.448,16.724 Z M93.778,28.964 L95.92,28.964 C95.6706654,26.9466566 94.8943398,25.4393383 93.591,24.442 C92.2876601,23.4446617 90.6953427,22.946 88.814,22.946 C87.47666,22.946 86.2923385,23.1953308 85.261,23.694 C84.2296615,24.1926692 83.3626702,24.8613291 82.66,25.7 C81.9573298,26.5386709 81.4246685,27.5189944 81.062,28.641 C80.6993315,29.7630056 80.518,30.9586603 80.518,32.228 C80.518,33.4973397 80.6993315,34.6929944 81.062,35.815 C81.4246685,36.9370056 81.9573298,37.9173291 82.66,38.756 C83.3626702,39.5946709 84.2296615,40.2576642 85.261,40.745 C86.2923385,41.2323358 87.47666,41.476 88.814,41.476 C90.8086766,41.476 92.4406603,40.881006 93.71,39.691 C94.9793397,38.500994 95.7613318,36.8406773 96.056,34.71 L93.914,34.71 C93.8459996,35.435337 93.6646681,36.1039969 93.37,36.716 C93.0753318,37.3280031 92.7013356,37.8549978 92.248,38.297 C91.7946644,38.7390022 91.2733363,39.0846654 90.684,39.334 C90.0946637,39.5833346 89.4713366,39.708 88.814,39.708 C87.7939949,39.708 86.8986705,39.4926688 86.128,39.062 C85.3573295,38.6313312 84.7170025,38.0646702 84.207,37.362 C83.6969974,36.6593298 83.311668,35.8603378 83.051,34.965 C82.790332,34.0696622 82.66,33.157338 82.66,32.228 C82.66,31.298662 82.790332,30.3863378 83.051,29.491 C83.311668,28.5956622 83.6969974,27.7966702 84.207,27.094 C84.7170025,26.3913298 85.3573295,25.8246688 86.128,25.394 C86.8986705,24.9633312 87.7939949,24.748 88.814,24.748 C90.2420071,24.748 91.3526627,25.1219963 92.146,25.87 C92.9393373,26.6180037 93.4833318,27.6493268 93.778,28.964 L93.778,28.964 Z M98.282,16.724 L98.282,41 L100.424,41 L100.424,16.724 L98.282,16.724 Z M103.772,16.724 L103.772,20.158 L105.914,20.158 L105.914,16.724 L103.772,16.724 Z M103.772,23.456 L103.772,41 L105.914,41 L105.914,23.456 L103.772,23.456 Z M109.228,23.456 L109.228,47.46 L111.37,47.46 L111.37,37.668 L111.438,37.668 C111.664668,38.3026698 111.987665,38.8579976 112.407,39.334 C112.826335,39.8100024 113.307997,40.2066651 113.852,40.524 C114.396003,40.8413349 114.98533,41.0793325 115.62,41.238 C116.25467,41.3966675 116.88933,41.476 117.524,41.476 C118.86134,41.476 120.022995,41.2323358 121.009,40.745 C121.995005,40.2576642 122.816663,39.5890043 123.474,38.739 C124.131337,37.8889957 124.618665,36.9030056 124.936,35.781 C125.253335,34.6589944 125.412,33.4746729 125.412,32.228 C125.412,30.9813271 125.253335,29.7970056 124.936,28.675 C124.618665,27.5529944 124.131337,26.5670042 123.474,25.717 C122.816663,24.8669958 121.995005,24.1926692 121.009,23.694 C120.022995,23.1953308 118.86134,22.946 117.524,22.946 C116.095993,22.946 114.821006,23.28033 113.699,23.949 C112.576994,24.61767 111.766669,25.5639939 111.268,26.788 L111.2,26.788 L111.2,23.456 L109.228,23.456 Z M123.27,32.228 C123.27,33.1346712 123.162334,34.0356622 122.947,34.931 C122.731666,35.8263378 122.391669,36.6253298 121.927,37.328 C121.462331,38.0306702 120.867337,38.6029978 120.142,39.045 C119.416663,39.4870022 118.544005,39.708 117.524,39.708 C116.390661,39.708 115.433004,39.4870022 114.651,39.045 C113.868996,38.6029978 113.234336,38.0306702 112.747,37.328 C112.259664,36.6253298 111.908334,35.8263378 111.693,34.931 C111.477666,34.0356622 111.37,33.1346712 111.37,32.228 C111.37,31.2306617 111.466332,30.2786712 111.659,29.372 C111.851668,28.4653288 112.185998,27.6720034 112.662,26.992 C113.138002,26.3119966 113.772663,25.768002 114.566,25.36 C115.359337,24.951998 116.345327,24.748 117.524,24.748 C118.544005,24.748 119.416663,24.9689978 120.142,25.411 C120.867337,25.8530022 121.462331,26.4253298 121.927,27.128 C122.391669,27.8306702 122.731666,28.6296622 122.947,29.525 C123.162334,30.4203378 123.27,31.3213288 123.27,32.228 L123.27,32.228 Z M138.45,28.59 L140.592,28.59 C140.546666,27.6379952 140.354002,26.8106702 140.014,26.108 C139.673998,25.4053298 139.215003,24.8160024 138.637,24.34 C138.058997,23.8639976 137.390337,23.5126678 136.631,23.286 C135.871663,23.0593322 135.050004,22.946 134.166,22.946 C133.395329,22.946 132.619004,23.0366658 131.837,23.218 C131.054996,23.3993342 130.34667,23.6826647 129.712,24.068 C129.07733,24.4533353 128.561669,24.9633302 128.165,25.598 C127.768331,26.2326698 127.57,26.9919956 127.57,27.876 C127.57,28.6240037 127.694665,29.2529975 127.944,29.763 C128.193335,30.2730026 128.538998,30.7036649 128.981,31.055 C129.423002,31.4063351 129.938664,31.7009988 130.528,31.939 C131.117336,32.1770012 131.76333,32.3866658 132.466,32.568 L135.22,33.18 C135.696002,33.2933339 136.166331,33.4293325 136.631,33.588 C137.095669,33.7466675 137.509331,33.9449988 137.872,34.183 C138.234668,34.4210012 138.523666,34.7156649 138.739,35.067 C138.954334,35.4183351 139.062,35.8546641 139.062,36.376 C139.062,36.9880031 138.909001,37.5036646 138.603,37.923 C138.296998,38.3423354 137.906002,38.6879986 137.43,38.96 C136.953998,39.2320014 136.438336,39.4246661 135.883,39.538 C135.327664,39.6513339 134.789336,39.708 134.268,39.708 C132.839993,39.708 131.644338,39.3396704 130.681,38.603 C129.717662,37.8663297 129.190667,36.7726739 129.1,35.322 L126.958,35.322 C127.139334,37.4753441 127.870327,39.0393285 129.151,40.014 C130.431673,40.9886715 132.103323,41.476 134.166,41.476 C134.982004,41.476 135.809329,41.3853342 136.648,41.204 C137.486671,41.0226658 138.24033,40.7223354 138.909,40.303 C139.57767,39.8836646 140.127331,39.33967 140.558,38.671 C140.988669,38.00233 141.204,37.1920048 141.204,36.24 C141.204,35.4693295 141.056668,34.8006695 140.762,34.234 C140.467332,33.6673305 140.087669,33.1913353 139.623,32.806 C139.158331,32.4206647 138.62567,32.1090012 138.025,31.871 C137.42433,31.6329988 136.818003,31.4686671 136.206,31.378 L133.35,30.732 C132.987331,30.6413329 132.590669,30.5223341 132.16,30.375 C131.729331,30.2276659 131.332668,30.0406678 130.97,29.814 C130.607331,29.5873322 130.307001,29.3096683 130.069,28.981 C129.830999,28.6523317 129.712,28.2500024 129.712,27.774 C129.712,27.2073305 129.836665,26.7313353 130.086,26.346 C130.335335,25.9606647 130.663998,25.6490012 131.072,25.411 C131.480002,25.1729988 131.927664,25.0030005 132.415,24.901 C132.902336,24.7989995 133.383998,24.748 133.86,24.748 C134.472003,24.748 135.049997,24.8216659 135.594,24.969 C136.138003,25.1163341 136.619665,25.3486651 137.039,25.666 C137.458335,25.9833349 137.792665,26.3856642 138.042,26.873 C138.291335,27.3603358 138.427333,27.9326634 138.45,28.59 L138.45,28.59 Z M156.112,31.004 L144.756,31.004 C144.846667,30.2106627 145.033665,29.4343371 145.317,28.675 C145.600335,27.9156629 145.979998,27.2470029 146.456,26.669 C146.932002,26.0909971 147.509997,25.6263351 148.19,25.275 C148.870003,24.9236649 149.651996,24.748 150.536,24.748 C151.397338,24.748 152.167997,24.9236649 152.848,25.275 C153.528003,25.6263351 154.105998,26.0909971 154.582,26.669 C155.058002,27.2470029 155.426332,27.9099963 155.687,28.658 C155.947668,29.4060037 156.089333,30.1879959 156.112,31.004 L156.112,31.004 Z M144.756,32.806 L158.254,32.806 C158.299333,31.5819939 158.186001,30.375006 157.914,29.185 C157.641999,27.9949941 157.194336,26.9410046 156.571,26.023 C155.947663,25.1049954 155.137338,24.3626695 154.14,23.796 C153.142662,23.2293305 151.94134,22.946 150.536,22.946 C149.153326,22.946 147.957672,23.2123307 146.949,23.745 C145.940328,24.2776693 145.11867,24.980329 144.484,25.853 C143.84933,26.725671 143.379001,27.7173278 143.073,28.828 C142.766998,29.9386722 142.614,31.0719942 142.614,32.228 C142.614,33.4746729 142.766998,34.6589944 143.073,35.781 C143.379001,36.9030056 143.84933,37.8889957 144.484,38.739 C145.11867,39.5890043 145.940328,40.2576642 146.949,40.745 C147.957672,41.2323358 149.153326,41.476 150.536,41.476 C152.757344,41.476 154.474327,40.9320054 155.687,39.844 C156.899673,38.7559946 157.732664,37.2146766 158.186,35.22 L156.044,35.22 C155.703998,36.5800068 155.092004,37.6679959 154.208,38.484 C153.323996,39.3000041 152.100008,39.708 150.536,39.708 C149.515995,39.708 148.643337,39.4926688 147.918,39.062 C147.192663,38.6313312 146.592002,38.0873366 146.116,37.43 C145.639998,36.7726634 145.294334,36.0303375 145.079,35.203 C144.863666,34.3756625 144.756,33.5766705 144.756,32.806 L144.756,32.806 Z M187.152,24.068 L189.464,24.068 C189.305332,22.7986603 188.92567,21.6766715 188.325,20.702 C187.72433,19.7273285 186.976338,18.90567 186.081,18.237 C185.185662,17.56833 184.188339,17.0640017 183.089,16.724 C181.989661,16.3839983 180.862006,16.214 179.706,16.214 C177.80199,16.214 176.13034,16.5596632 174.691,17.251 C173.251659,17.9423368 172.056005,18.8716608 171.104,20.039 C170.151995,21.2063392 169.438002,22.5493257 168.962,24.068 C168.485998,25.5866743 168.248,27.1846583 168.248,28.862 C168.248,30.5393417 168.485998,32.1373257 168.962,33.656 C169.438002,35.1746743 170.151995,36.5119942 171.104,37.668 C172.056005,38.8240058 173.251659,39.7476632 174.691,40.439 C176.13034,41.1303368 177.80199,41.476 179.706,41.476 C181.134007,41.476 182.431661,41.2493356 183.599,40.796 C184.766339,40.3426644 185.780662,39.6966709 186.642,38.858 C187.503338,38.0193291 188.205997,36.9993393 188.75,35.798 C189.294003,34.5966607 189.645332,33.2480075 189.804,31.752 L187.492,31.752 C187.378666,32.8400054 187.118002,33.8543286 186.71,34.795 C186.301998,35.7356714 185.769337,36.5573298 185.112,37.26 C184.454663,37.9626702 183.672671,38.517998 182.766,38.926 C181.859329,39.334002 180.839339,39.538 179.706,39.538 C178.096659,39.538 176.714006,39.2320031 175.558,38.62 C174.401994,38.0079969 173.45567,37.1976717 172.719,36.189 C171.98233,35.1803283 171.438335,34.0356731 171.087,32.755 C170.735665,31.4743269 170.56,30.1766732 170.56,28.862 C170.56,27.52466 170.735665,26.2213397 171.087,24.952 C171.438335,23.6826603 171.98233,22.5436717 172.719,21.535 C173.45567,20.5263283 174.401994,19.7160031 175.558,19.104 C176.714006,18.4919969 178.096659,18.186 179.706,18.186 C180.590004,18.186 181.434329,18.316332 182.239,18.577 C183.043671,18.837668 183.78033,19.2173308 184.449,19.716 C185.11767,20.2146692 185.684331,20.8323297 186.149,21.569 C186.613669,22.3056704 186.947999,23.138662 187.152,24.068 L187.152,24.068 Z M192.098,16.724 L192.098,41 L194.24,41 L194.24,30.766 C194.262667,29.9046624 194.404332,29.1056703 194.665,28.369 C194.925668,27.6323296 195.288331,26.9976693 195.753,26.465 C196.217669,25.9323307 196.78433,25.5130015 197.453,25.207 C198.12167,24.9009985 198.886662,24.748 199.748,24.748 C200.609338,24.748 201.328997,24.8839986 201.907,25.156 C202.485003,25.4280014 202.943998,25.8019976 203.284,26.278 C203.624002,26.7540024 203.861999,27.3149968 203.998,27.961 C204.134001,28.6070032 204.202,29.3039963 204.202,30.052 L204.202,41 L206.344,41 L206.344,29.712 C206.344,28.6693281 206.242001,27.7286709 206.038,26.89 C205.833999,26.0513291 205.482669,25.3430029 204.984,24.765 C204.485331,24.1869971 203.822337,23.7393349 202.995,23.422 C202.167662,23.1046651 201.142006,22.946 199.918,22.946 C198.671327,22.946 197.526672,23.2689968 196.484,23.915 C195.441328,24.5610032 194.716002,25.4166613 194.308,26.482 L194.24,26.482 L194.24,16.724 L192.098,16.724 Z M222.204,31.004 L210.848,31.004 C210.938667,30.2106627 211.125665,29.4343371 211.409,28.675 C211.692335,27.9156629 212.071998,27.2470029 212.548,26.669 C213.024002,26.0909971 213.601996,25.6263351 214.282,25.275 C214.962003,24.9236649 215.743995,24.748 216.628,24.748 C217.489338,24.748 218.259996,24.9236649 218.94,25.275 C219.620003,25.6263351 220.197998,26.0909971 220.674,26.669 C221.150002,27.2470029 221.518332,27.9099963 221.779,28.658 C222.039668,29.4060037 222.181333,30.1879959 222.204,31.004 L222.204,31.004 Z M210.848,32.806 L224.346,32.806 C224.391333,31.5819939 224.278001,30.375006 224.006,29.185 C223.733999,27.9949941 223.286336,26.9410046 222.663,26.023 C222.039663,25.1049954 221.229338,24.3626695 220.232,23.796 C219.234662,23.2293305 218.03334,22.946 216.628,22.946 C215.245326,22.946 214.049672,23.2123307 213.041,23.745 C212.032328,24.2776693 211.21067,24.980329 210.576,25.853 C209.94133,26.725671 209.471001,27.7173278 209.165,28.828 C208.858998,29.9386722 208.706,31.0719942 208.706,32.228 C208.706,33.4746729 208.858998,34.6589944 209.165,35.781 C209.471001,36.9030056 209.94133,37.8889957 210.576,38.739 C211.21067,39.5890043 212.032328,40.2576642 213.041,40.745 C214.049672,41.2323358 215.245326,41.476 216.628,41.476 C218.849344,41.476 220.566327,40.9320054 221.779,39.844 C222.991673,38.7559946 223.824664,37.2146766 224.278,35.22 L222.136,35.22 C221.795998,36.5800068 221.184004,37.6679959 220.3,38.484 C219.415995,39.3000041 218.192008,39.708 216.628,39.708 C215.607995,39.708 214.735337,39.4926688 214.01,39.062 C213.284663,38.6313312 212.684002,38.0873366 212.208,37.43 C211.731998,36.7726634 211.386334,36.0303375 211.171,35.203 C210.955665,34.3756625 210.848,33.5766705 210.848,32.806 L210.848,32.806 Z" fill="#000"></path>
        </g>
    </g>
</svg>

<?xml version="1.0" encoding="UTF-8" standalone="no"?>
<!--

    Copyright (c) 2015-2016 Codenvy, S.A.
    All rights reserved. This program and the accompanying materials
    are made available under the terms of the Eclipse Public License v1.0
    which accompanies this distribution, and is available at
    http://www.eclipse.org/legal/epl-v10.html

    Contributors:
      Codenvy, S.A. - initial API and implementation

-->
<svg id="svg3077" xmlns:rdf="http://www.w3.org/1999/02/22-rdf-syntax-ns#" xmlns="http://www.w3.org/2000/svg" height="100%" width="100%" version="1.1" xmlns:cc="http://creativecommons.org/ns#" xmlns:dc="http://purl.org/dc/elements/1.1/" viewBox="0 0 225 57">
 <metadata id="metadata3093">
  <rdf:RDF>
   <cc:Work rdf:about="">
    <dc:format>image/svg+xml</dc:format>
    <dc:type rdf:resource="http://purl.org/dc/dcmitype/StillImage"/>
    <dc:title/>
   </cc:Work>
  </rdf:RDF>
 </metadata>
 <g fill-rule="evenodd" stroke="none" stroke-width="1" fill="none">
  <g>
   <path d="M0.032227,30.88l-0.032227-17.087,23.853-13.793,23.796,13.784-14.691,8.51-9.062-5.109-23.864,13.695z" fill="#fdb940"/>
   <path d="M0,43.355l23.876,13.622,23.974-13.937v-16.902l-23.974,13.506-23.876-13.506v17.217z" fill="#525c86"/>
   <path fill="#000" class="outer-fill" d="M62.448,16.724v24.276h16.932v-1.972h-14.62v-9.588h13.532v-1.972h-13.532v-8.772h14.45v-1.972h-16.762zm31.33,12.24h2.142c-0.249-2.017-1.026-3.525-2.329-4.522s-2.896-1.496-4.777-1.496c-1.337,0-2.522,0.249-3.553,0.748s-1.898,1.167-2.601,2.006-1.235,1.819-1.598,2.941-0.544,2.318-0.544,3.587,0.181,2.465,0.544,3.587,0.895,2.102,1.598,2.941,1.57,1.502,2.601,1.989,2.216,0.731,3.553,0.731c1.995,0,3.627-0.595,4.896-1.785s2.051-2.85,2.346-4.981h-2.142c-0.068,0.725-0.249,1.394-0.544,2.006s-0.669,1.139-1.122,1.581-0.975,0.788-1.564,1.037-1.213,0.374-1.87,0.374c-1.02,0-1.915-0.215-2.686-0.646s-1.411-0.997-1.921-1.7-0.895-1.502-1.156-2.397-0.391-1.808-0.391-2.737,0.13-1.842,0.391-2.737,0.646-1.694,1.156-2.397,1.15-1.269,1.921-1.7,1.666-0.646,2.686-0.646c1.428,0,2.539,0.374,3.332,1.122s1.337,1.779,1.632,3.094zm4.504-12.24v24.276h2.138v-24.276h-2.138zm5.488,0v3.434h2.14v-3.434h-2.14zm0,6.732v17.544h2.14v-17.544h-2.14zm5.46,0v24.004h2.14v-9.792h0.07c0.22,0.635,0.55,1.19,0.97,1.666s0.9,0.873,1.44,1.19c0.55,0.317,1.14,0.555,1.77,0.714s1.27,0.238,1.9,0.238c1.34,0,2.5-0.244,3.49-0.731s1.81-1.156,2.46-2.006c0.66-0.85,1.15-1.836,1.47-2.958,0.31-1.122,0.47-2.306,0.47-3.553s-0.16-2.431-0.47-3.553c-0.32-1.122-0.81-2.108-1.47-2.958-0.65-0.85-1.47-1.524-2.46-2.023s-2.15-0.748-3.49-0.748c-1.42,0-2.7,0.334-3.82,1.003s-1.93,1.615-2.43,2.839h-0.07v-3.332h-1.97zm14.04,8.772c0,0.907-0.11,1.808-0.32,2.703-0.22,0.895-0.56,1.694-1.02,2.397-0.47,0.703-1.06,1.275-1.79,1.717-0.72,0.442-1.6,0.663-2.62,0.663-1.13,0-2.09-0.221-2.87-0.663s-1.42-1.014-1.9-1.717c-0.49-0.703-0.84-1.502-1.06-2.397-0.21-0.895-0.32-1.796-0.32-2.703,0-0.997,0.1-1.949,0.29-2.856s0.53-1.7,1-2.38c0.48-0.68,1.11-1.224,1.91-1.632,0.79-0.408,1.78-0.612,2.95-0.612,1.02,0,1.9,0.221,2.62,0.663,0.73,0.442,1.32,1.014,1.79,1.717,0.46,0.703,0.8,1.502,1.02,2.397,0.21,0.895,0.32,1.796,0.32,2.703zm15.18-3.638h2.14c-0.04-0.952-0.24-1.779-0.58-2.482s-0.79-1.292-1.37-1.768-1.25-0.827-2.01-1.054-1.58-0.34-2.46-0.34c-0.77,0-1.55,0.091-2.33,0.272-0.79,0.181-1.49,0.465-2.13,0.85-0.63,0.385-1.15,0.895-1.55,1.53-0.39,0.635-0.59,1.394-0.59,2.278,0,0.748,0.12,1.377,0.37,1.887s0.6,0.941,1.04,1.292,0.96,0.646,1.55,0.884,1.23,0.448,1.94,0.629l2.75,0.612c0.48,0.113,0.95,0.249,1.41,0.408,0.47,0.159,0.88,0.357,1.24,0.595s0.65,0.533,0.87,0.884c0.21,0.351,0.32,0.788,0.32,1.309,0,0.612-0.15,1.128-0.46,1.547-0.3,0.419-0.69,0.765-1.17,1.037s-0.99,0.465-1.55,0.578c-0.55,0.113-1.09,0.17-1.61,0.17-1.43,0-2.63-0.368-3.59-1.105s-1.49-1.83-1.58-3.281h-2.14c0.18,2.153,0.91,3.717,2.19,4.692s2.95,1.462,5.02,1.462c0.81,0,1.64-0.091,2.48-0.272s1.59-0.482,2.26-0.901,1.22-0.963,1.65-1.632,0.64-1.479,0.64-2.431c0-0.771-0.14-1.439-0.44-2.006-0.29-0.567-0.67-1.043-1.14-1.428-0.46-0.385-0.99-0.697-1.6-0.935-0.6-0.238-1.2-0.402-1.81-0.493l-2.86-0.646c-0.36-0.091-0.76-0.21-1.19-0.357s-0.83-0.334-1.19-0.561-0.66-0.504-0.9-0.833-0.36-0.731-0.36-1.207c0-0.567,0.13-1.043,0.38-1.428s0.57-0.697,0.98-0.935,0.86-0.408,1.35-0.51c0.48-0.102,0.96-0.153,1.44-0.153,0.61,0,1.19,0.074,1.73,0.221,0.55,0.147,1.03,0.38,1.45,0.697s0.75,0.72,1,1.207,0.39,1.06,0.41,1.717zm17.66,2.414h-11.35c0.09-0.793,0.27-1.57,0.56-2.329,0.28-0.759,0.66-1.428,1.14-2.006,0.47-0.578,1.05-1.043,1.73-1.394s1.46-0.527,2.35-0.527c0.86,0,1.63,0.176,2.31,0.527s1.26,0.816,1.73,1.394c0.48,0.578,0.85,1.241,1.11,1.989s0.4,1.53,0.42,2.346zm-11.35,1.802h13.49c0.05-1.224-0.06-2.431-0.34-3.621-0.27-1.19-0.72-2.244-1.34-3.162s-1.43-1.66-2.43-2.227-2.2-0.85-3.6-0.85c-1.39,0-2.58,0.266-3.59,0.799s-1.83,1.235-2.47,2.108c-0.63,0.873-1.1,1.864-1.41,2.975-0.3,1.111-0.46,2.244-0.46,3.4,0,1.247,0.16,2.431,0.46,3.553,0.31,1.122,0.78,2.108,1.41,2.958,0.64,0.85,1.46,1.519,2.47,2.006s2.2,0.731,3.59,0.731c2.22,0,3.93-0.544,5.15-1.632,1.21-1.088,2.04-2.629,2.5-4.624h-2.15c-0.34,1.36-0.95,2.448-1.83,3.264-0.89,0.816-2.11,1.224-3.67,1.224-1.02,0-1.9-0.215-2.62-0.646-0.73-0.431-1.33-0.975-1.8-1.632-0.48-0.657-0.83-1.4-1.04-2.227-0.22-0.827-0.32-1.626-0.32-2.397zm42.39-8.738h2.31c-0.15-1.269-0.53-2.391-1.14-3.366-0.6-0.975-1.34-1.796-2.24-2.465-0.89-0.669-1.89-1.173-2.99-1.513s-2.23-0.51-3.38-0.51c-1.91,0-3.58,0.346-5.02,1.037s-2.63,1.621-3.59,2.788c-0.95,1.167-1.66,2.51-2.14,4.029-0.47,1.519-0.71,3.117-0.71,4.794s0.24,3.275,0.71,4.794c0.48,1.519,1.19,2.856,2.14,4.012,0.96,1.156,2.15,2.08,3.59,2.771s3.11,1.037,5.02,1.037c1.42,0,2.72-0.227,3.89-0.68s2.18-1.099,3.04-1.938,1.57-1.859,2.11-3.06,0.9-2.55,1.05-4.046h-2.31c-0.11,1.088-0.37,2.102-0.78,3.043s-0.94,1.762-1.6,2.465-1.44,1.258-2.34,1.666c-0.91,0.408-1.93,0.612-3.06,0.612-1.61,0-3-0.306-4.15-0.918-1.16-0.612-2.1-1.422-2.84-2.431s-1.28-2.153-1.63-3.434-0.53-2.578-0.53-3.893c0-1.337,0.18-2.641,0.53-3.91s0.89-2.408,1.63-3.417,1.68-1.819,2.84-2.431c1.15-0.612,2.54-0.918,4.15-0.918,0.88,0,1.72,0.13,2.53,0.391,0.8,0.261,1.54,0.64,2.21,1.139s1.23,1.116,1.7,1.853c0.46,0.737,0.8,1.57,1,2.499zm4.95-7.344v24.276h2.14v-10.234c0.02-0.861,0.16-1.66,0.42-2.397,0.27-0.737,0.63-1.371,1.09-1.904,0.47-0.533,1.03-0.952,1.7-1.258s1.44-0.459,2.3-0.459,1.58,0.136,2.16,0.408,1.03,0.646,1.37,1.122,0.58,1.037,0.72,1.683c0.13,0.646,0.2,1.343,0.2,2.091v10.948h2.14v-11.288c0-1.043-0.1-1.983-0.3-2.822-0.21-0.839-0.56-1.547-1.06-2.125-0.49-0.578-1.16-1.026-1.98-1.343-0.83-0.317-1.86-0.476-3.08-0.476-1.25,0-2.39,0.323-3.44,0.969-1.04,0.646-1.76,1.502-2.17,2.567h-0.07v-9.758h-2.14zm30.1,14.28h-11.35c0.09-0.793,0.28-1.57,0.56-2.329s0.66-1.428,1.14-2.006c0.47-0.578,1.05-1.043,1.73-1.394s1.46-0.527,2.35-0.527c0.86,0,1.63,0.176,2.31,0.527s1.26,0.816,1.73,1.394c0.48,0.578,0.85,1.241,1.11,1.989s0.4,1.53,0.42,2.346zm-11.35,1.802h13.5c0.04-1.224-0.07-2.431-0.34-3.621-0.28-1.19-0.72-2.244-1.35-3.162-0.62-0.918-1.43-1.66-2.43-2.227s-2.2-0.85-3.6-0.85c-1.38,0-2.58,0.266-3.59,0.799s-1.83,1.235-2.46,2.108c-0.64,0.873-1.11,1.864-1.42,2.975-0.3,1.111-0.45,2.244-0.45,3.4,0,1.247,0.15,2.431,0.45,3.553,0.31,1.122,0.78,2.108,1.42,2.958,0.63,0.85,1.45,1.519,2.46,2.006s2.21,0.731,3.59,0.731c2.22,0,3.94-0.544,5.15-1.632s2.04-2.629,2.5-4.624h-2.14c-0.34,1.36-0.96,2.448-1.84,3.264s-2.11,1.224-3.67,1.224c-1.02,0-1.89-0.215-2.62-0.646s-1.33-0.975-1.8-1.632c-0.48-0.657-0.82-1.4-1.04-2.227-0.21-0.827-0.32-1.626-0.32-2.397z"/>
  </g>
 </g>
</svg>
